X:1
T:Title
L:1/8
M:14/4
K:C
V:1 treble nm="Choir Aahs"
V:1
 c4 B2 A2 G4 c4 e4 d4 c4 |[M:10/4] c4 d2 e2 f4 d4 e4 |[M:12/4] e4 d2 c2 B4 c4 A2 A2 G4 | %3
[M:10/4] G2 c4 d2 e4 d4 c4 |[M:12/4] G2 c4 d2 e4 c2 f4 f2 e4 |[M:10/4] c4 A2 B2 c4 d4 c4 | %6
[M:12/4] c4 e2 f2 g4 g2 a4 a2 g4 | e4 d2 e2 f4 d4 c2- c6 |] %8

